!!!COM:	la Rue, Pierre de
!!!CDT:	~1452///-1518/11/20
!!!OPR:	Missa De sancta cruce
!!!ONM:	1
!!!OTL:	Kyrie
!!!AGN:	Mass; Kyrie
!!!SCT:	Rue1011a
!!!SCA:	Rue1011a
!!!voices:	5
!!!voices-OPR:	5
**kern	**kern	**kern	**kern	**kern
*staff5	*staff4	*staff3	*staff2	*staff1
*Ivox	*Ivox	*Ivox	*Ivox	*Ivox
*I"Bassus	*I"Tenor II	*I"Tenor I	*I"Contra	*I"Discantus
*I'B	*I'T	*I'T	*I'C	*I'D
*>[A,B,C]	*>[A,B,C]	*>[A,B,C]	*>[A,B,C]	*>[A,B,C]
*>A	*>A	*>A	*>A	*>A
*clefF4	*clefGv2	*clefGv2	*clefG2	*clefG2
*k[b-]	*k[b-]	*k[b-]	*k[b-]	*k[b-]
*M3/1	*M3/1	*M3/1	*M3/1	*M3/1
*met(O)	*met(O)	*met(O)	*met(O)	*met(O)
!!section: Kyrie I
!!!OMD: Kyrie I
=1-	=1-	=1-	=1-	=1-
0.r	0G	0.r	0d	0g
.	[1B-	.	1d	4g/
.	.	.	.	4a/
.	.	.	.	4b-\
.	.	.	.	4g/
=2	=2	=2	=2	=2
0D	1B-]	0.r	1.f	1dd
.	0A	.	.	2dd\
.	.	.	4e/	1a
.	.	.	4d/	.
1F	.	.	1c	.
.	.	.	.	[2cc\
=3	=3	=3	=3	=3
1C	1c	0G	1r	4cc\]
.	.	.	.	4b-\
.	.	.	.	1g
1E	1G	.	1r	.
.	.	.	.	2.g/
1G	1d	1B-	1d	.
.	.	.	.	4a/
.	.	.	.	2b-\
=4	=4	=4	=4	=4
1.F	2r	0A	1.a	2cc\
.	2.f\	.	.	1dd
.	4e\	.	.	.
2E\	2c\	.	2g/	2cc\
1D	1d	1B-	2.f/	1ff
.	.	.	4g/	.
=5	=5	=5	=5	=5
1C	2r	1.c	2a/	1ee
.	2G/	.	2g/	.
1r	2A/	.	2e/	2cc\
.	2G/	2B-\	2.g/	2dd\
1r	2.d\	2G/	.	2b-\
.	.	.	4f/	.
.	.	[2B-\	[2d/	[2dd\
.	4c\	.	.	.
=6	=6	=6	=6	=6
0.r	2B-\	2B-\]	4d/]	2dd\]
.	.	.	4e/	.
.	2A/	2F/	2f/	2cc\
.	2G/	2B-\	2B-/	2dd\
.	2B-\	2d\	1b-	2b-\
.	1F	1c	.	1cc
.	.	.	2a/	.
=7	=7	=7	=7	=7
0G	0.d	1B-	0.b-	1dd
.	.	2r	.	2r
.	.	2B-\	.	2dd\
1G	.	2G/	.	2b-\
.	.	[2B-\	.	[2dd\
=8	=8	=8	=8	=8
2D\	2.f\	2B-\]	2r	2dd\]
1F	.	1A	1f	2.cc\
.	4e\	.	.	.
.	4c\	.	.	.
.	4d\	.	.	4b-\
2E\	1e	2B-\	2g/	1g
2C/	.	2c\	1e	.
2E\	2c\	2G/	.	2g/
=9	=9	=9	=9	=9
2D\	0d	2r	2f/	2.dd\
1G	.	1B-	1g	.
.	.	.	.	4cc\
.	.	.	.	2b-\
1F	.	2d\	2.a/	2a/
.	1A	2c\	.	2.cc\
.	.	.	4g/	.
2F\	.	2A/	4f/	.
.	.	.	4e/	4b-\
=10	=10	=10	=10	=10
2G\	1r	2B-\	2d/	1g
2C/	.	2c\	2e/	.
2G\	1d	1G	2d/	2g/
1B-	.	.	2G/	1dd
.	2B-\	2r	1r	.
2A\	2c\	[2c\	.	2cc\
=11	=11	=11	=11	=11
2F\	1d	2c\]	2r	2a/
2G\	.	2B-\	1g	2b-\
2C/	2c\	2c\	.	2r
2F\	2A/	1d	2f/	2a/
2G\	2r	.	1e	2b-\
2A\	[2A/	2c#i\	.	2cc\
=12	=12	=12	=12	=12
2D\	2A/]	2d\	2f/	2a/
2.C/	2E/	1e	2g/	1cc
.	2A/	.	2a/	.
4AA/	.	.	.	.
2BB-/	2D/	1d	2r	2dd\
1AA	1A	.	[1a	1ee
.	.	2c#i\	.	.
=13	=13	=13	=13	=13
2r	2r	[0.dl	1a]	2.ff\
1D	2A/	.	.	.
.	.	.	.	4ee\
.	2B-\	.	2.f/	4dd\
.	.	.	.	4cc\
4D\	2.d\	.	.	2b-\
4E\	.	.	4g/	.
2F\	.	.	2a/	2a/
.	4c\	.	.	.
2G\	2B-\	.	4b-\	2g/
.	.	.	[4g/	.
=14	=14	=14	=14	=14
2D\	2A/	0.d_	4g/]	2a/
.	.	.	4f/	.
2.G\	2G/	.	2g/	1b-
.	2.d\	.	2g/	.
4F\	.	.	.	.
2D\	.	.	2f/	1a
.	4c\	.	.	.
1G	1B-	.	2.d/	.
.	.	.	.	2g/
.	.	.	4e/	.
=15	=15	=15	=15	=15
0.Dl	0.Al	0.d]	0.fl	0.al
!!LO:LB:i:g=z
=16||	=16||	=16||	=16||	=16||
*>B	*>B	*>B	*>B	*>B
*clefF4	*clefGv2	*clefGv2	*clefG2	*clefG2
*k[b-]	*k[b-]	*k[b-]	*k[b-]	*k[b-]
*M2/1	*M2/1	*M2/1	*M2/1	*M2/1
*met(C|)	*met(C|)	*met(C|)	*met(C|)	*met(C|)
!!section: Christe
!!!OMD: Christe
[0D	0A	[0f	[0a	[0dd
=17	=17	=17	=17	=17
0D]	1.d	0f_	0a_	0dd]
.	4c\	.	.	.
.	4B-\	.	.	.
=18	=18	=18	=18	=18
0F	0A	0f]	0a]	0cc
=19	=19	=19	=19	=19
0G	1.B-	[0d	0g	0b-
.	2c\	.	.	.
=20	=20	=20	=20	=20
0D	1d	0d]	0f	0a
.	[1A	.	.	.
=21	=21	=21	=21	=21
1r	1A]	0c	0e	0a
1A	1c	.	.	.
=22	=22	=22	=22	=22
2G\	2B-\	[0d	0r	0r
1G	1B-	.	.	.
4F\	4A/	.	.	.
4E\	4G/	.	.	.
=23	=23	=23	=23	=23
2.F\	2.A/	1d]	1a	1dd
4G\	4B-\	.	.	.
1C	1c	[1e	2g/	2cc\
.	.	.	[2g/	[2cc\
=24	=24	=24	=24	=24
0r	0r	1e]	2g/]	2cc\]
.	.	.	4f/	4b-\
.	.	.	4e/	4a/
.	.	1d	2.f/	2.b-\
.	.	.	4g/	4cc\
=25	=25	=25	=25	=25
0A	2.c\	2c\	2e/	0a
.	.	1c	2f/	.
.	4d\	.	.	.
.	2e\	.	2e/	.
.	2f\	4B-\	[2a/	.
.	.	4A/	.	.
=26	=26	=26	=26	=26
1E	[0e	2B-\	2a/]	1r
.	.	2c\	2g/	.
[1A	.	1A	[1a	1a
=27	=27	=27	=27	=27
1A]	0e]	0r	1a]	0cc
1A	.	.	1a	.
=28	=28	=28	=28	=28
1D	1f	1A	[0a	1dd
[1A	1e	[1c	.	[1ee
=29	=29	=29	=29	=29
1A]	1c	1c]	0a]	1ee]
1D	1f	1d	.	[1dd
=30	=30	=30	=30	=30
1r	1r	0e	1g	2dd\]
.	.	.	.	2cc\
1A	1c	.	1a	1cc
=31	=31	=31	=31	=31
1.B-	2B-\	0d	1f	0dd
.	2.d\	.	.	.
.	.	.	[1b-	.
.	4e\	.	.	.
2A\	[2f\	.	.	.
=32	=32	=32	=32	=32
1G	2f\]	0r	1b-]	1r
.	2e\	.	.	.
1F	1f	.	1a	[1ff
=33	=33	=33	=33	=33
0B-	1.d	[0f	1f	2ff\]
.	.	.	.	2ee\
.	.	.	1g	1dd
.	4c\	.	.	.
.	4B-\	.	.	.
=34	=34	=34	=34	=34
0F	0A	0f]	0a	1.cc
.	.	.	.	[2dd\
=35	=35	=35	=35	=35
0G	0r	0d	0g	2dd\]
.	.	.	.	1cc
.	.	.	.	2bni\
=36	=36	=36	=36	=36
[0C	1G	[0c	[0e	0cc
.	2G/	.	.	.
.	[2A/	.	.	.
=37	=37	=37	=37	=37
0C]	2A/]	0c]	0e]	1r
.	4G/	.	.	.
.	4F/	.	.	.
.	2G/	.	.	1cc
.	2A/	.	.	.
=38	=38	=38	=38	=38
0r	0D	0r	2.f/	0dd
.	.	.	4g/	.
.	.	.	2a/	.
.	.	.	[2b-\	.
=39	=39	=39	=39	=39
1r	1r	0r	2b-\]	1cc
.	.	.	2.a/	.
1G	1d	.	.	1b-
.	.	.	4f/	.
.	.	.	2g/	.
=40	=40	=40	=40	=40
0A	2.c\	1r	1e	1.a
.	4d\	.	.	.
.	2e\	1c	1c	.
.	2f\	.	.	4g/
.	.	.	.	4a/
=41	=41	=41	=41	=41
1G	2g\	0d	0r	2b-\
.	4f\	.	.	2.dd\
.	4e\	.	.	.
1F	1d	.	.	.
.	.	.	.	4cc\
.	.	.	.	[2b-\
=42	=42	=42	=42	=42
0E	0e	1c	0r	2b-\]
.	.	.	.	1a
.	.	1B-	.	.
.	.	.	.	2g/
=43	=43	=43	=43	=43
1r	1.c	[0A	1e	1a
[1F	.	.	2c/	2.a/
.	[2A/	.	[2f/	.
.	.	.	.	4b-\
=44	=44	=44	=44	=44
2F\]	2A/]	0A]	4f/]	2cc\
.	.	.	4g/	.
2D\	2F/	.	2.a/	1dd
2F\	2A/	.	.	.
.	.	.	4g/	.
2A\	2c\	.	2a/	2cc\
=45	=45	=45	=45	=45
2G\	2B-\	0B-	0d	1dd
4F\	1G	.	.	.
4E\	.	.	.	.
1D	.	.	.	1ff
.	2F/	.	.	.
=46	=46	=46	=46	=46
0C	0G	[0c	1r	2ee\
.	.	.	.	1cc
.	.	.	2.g/	.
.	.	.	.	4b-\
.	.	.	4f/	4a/
=47	=47	=47	=47	=47
1r	1r	0c]	4e/	1g
.	.	.	4d/	.
.	.	.	2c/	.
2r	2r	.	2g/	1r
[2c\	[2e-i\	.	2c/	.
=48	=48	=48	=48	=48
2c\]	2e-\]	[0e-i	[0g	0r
4B-\	4d\	.	.	.
4A\	4c\	.	.	.
2G\	2B-\	.	.	.
2C/	2c\	.	.	.
=49	=49	=49	=49	=49
2G\	2B-\	0e-]	0g]	0r
2.C/	1c	.	.	.
4D\	.	.	.	.
4E\	4B-\	.	.	.
4F\	4A/	.	.	.
=50	=50	=50	=50	=50
[0G	2.B-\	[0d	2r	0r
.	.	.	2.g/	.
.	4c\	.	.	.
.	2d\	.	.	.
.	.	.	4a/	.
.	[2G/	.	4b-\	.
.	.	.	4cc\	.
=51	=51	=51	=51	=51
0G]	2G/]	0d]	2dd\	1r
.	1g	.	1cc	.
.	.	.	.	1dd
.	[2g\	.	2bni\	.
=52	=52	=52	=52	=52
[0C	2g\]	0c	1.cc	0ee
.	1e	.	.	.
.	[2c\	.	4b-\	.
.	.	.	4a/	.
=53	=53	=53	=53	=53
0C]	2c\]	1r	[0g	1ee
.	4B-\	.	.	.
.	4A/	.	.	.
.	[1G	1c	.	1cc
=54	=54	=54	=54	=54
1r	1G]	1B-	0g_	1dd
[1C	1G	[1c	.	[1ee
=55	=55	=55	=55	=55
1C]	0G	1c]	0g_	2ee\]
.	.	.	.	2cc\
1G	.	1B-	.	1dd
=56	=56	=56	=56	=56
1C	0r	1c	0g]	[0cc
[1c	.	[1e-i	.	.
=57	=57	=57	=57	=57
2c\]	1r	2e-\]	[0g	1cc]
4B-\	.	2c\	.	.
4A\	.	.	.	.
1G	[1G	[1d	.	1b-
=58	=58	=58	=58	=58
1E	1G]	2d\]	1g]	0cc
.	.	2c\	.	.
1F	1A	[1c	1c	.
=59	=59	=59	=59	=59
0D	0F	1c]	0f	0dd
.	.	1Bni	.	.
=60	=60	=60	=60	=60
[0Cl	1.G	1c	[0el	[0gl
.	.	1G	.	.
.	[2c\	.	.	.
=61	=61	=61	=61	=61
0C_	4c\]	0c	0e_	0g_
.	4d\	.	.	.
.	4e\	.	.	.
.	4f\	.	.	.
.	2g\	.	.	.
.	2c\	.	.	.
=62	=62	=62	=62	=62
0C]	0cl	0Gl	0e]	0g]
!!LO:LB:i:g=z
=63||	=63||	=63||	=63||	=63||
*>C	*>C	*>C	*>C	*>C
*clefF4	*clefGv2	*clefGv2	*clefG2	*clefG2
*k[b-]	*k[b-]	*k[b-]	*k[b-]	*k[b-]
*M3/1	*M3/1	*M3/1	*M3/1	*M3/1
*met(O|)	*met(O|)	*met(O|)	*met(O|)	*met(O|)
!!section: Kyrie II
!!!OMD: Kyrie II
0C	0c	[0.G	0e	0g
[1E-	[1B-	.	[1g	1g
=64	=64	=64	=64	=64
1E-]	1B-]	1G]	1g]	0b-
0BB-	0d	0B-	0f	.
.	.	.	.	1dd
=65	=65	=65	=65	=65
1E-	2B-\	1.B-	2.g/	2g/
.	1G	.	.	2.b-\
.	.	.	4e/	.
1D	.	.	4f/	.
.	.	.	4g/	4cc\
.	1F	1.A	4a/	2dd\
.	.	.	4b-\	.
1C	.	.	1cc	2ee-i\
.	2E-i/	.	.	2cc\
=66	=66	=66	=66	=66
0BB-	0F	1B-	1.f	2dd\
.	.	.	.	2.ff\
.	.	0d	.	.
.	.	.	.	4ee\
.	.	.	1b-	1dd
1BB-	1F	.	.	.
.	.	.	4a/	4cc\
.	.	.	4g/	4b-\
=67	=67	=67	=67	=67
0F	2F/	0.c	0f	2a/
.	1A	.	.	1cc
.	2B-\	.	.	1b-
1F	1c	.	1f	.
.	.	.	.	2a/
=68	=68	=68	=68	=68
1BB-	1.B-	0d	2.f/	1.b-
.	.	.	4e/	.
2r	.	.	4f/	.
.	.	.	4g/	.
2F\	2A/	.	2a/	2.dd\
2.G\	2B-\	1B-	2d/	.
.	.	.	.	4cc\
.	[2G/	.	[2g/	4b-\
4F\	.	.	.	4a/
=69	=69	=69	=69	=69
4E\	2G/]	1c	4g/]	2g/
4D\	.	.	4f/	.
2.C/	2.g\	.	2.e/	2cc\
.	.	2c\	.	2g/
4D\	4f\	.	4d/	.
2E\	4e\	2G/	1c	2.cc\
.	4d\	.	.	.
2.F\	4c\	1c	.	.
.	4B-\	.	.	4dd\
.	[2A/	.	[2a/	2ee\
4E\	.	.	.	.
=70	=70	=70	=70	=70
4D\	2A/]	2d\	2a/]	2ff\
4C/	.	.	.	.
1BB-	2.d\	1f	2.b-\	1dd
.	4G/	.	4a/	.
2C/	2G/	2e\	4g/	1cc
.	.	.	4f/	.
1G	2r	1d	1g	.
.	2G/	.	.	2bni\
=71	=71	=71	=71	=71
0C	2c\	2r	0.g	0.cc
.	2G/	2c\	.	.
.	2.c\	2G/	.	.
.	.	2.c\	.	.
.	4B-\	.	.	.
2r	2A/	.	.	.
.	.	4d\	.	.
2C/	2G/	2e\	.	.
=72	=72	=72	=72	=72
2D\	2F/	2f\	1r	0.r
2.F\	1A	1d	.	.
.	.	.	1r	.
4E\	.	.	.	.
4D\	1G	1c	.	.
4C/	.	.	.	.
1D	.	.	1f	.
.	2F/	2Bni\	.	.
=73	=73	=73	=73	=73
2C/	2G/	0c	2e/	0cc
2.F\	2.A/	.	1f	.
4E\	4G/	.	.	.
2F\	2A/	.	2f/	.
2G\	2B-\	2r	2d/	2b-\
2F\	2c\	2c\	2f/	2a/
=74	=74	=74	=74	=74
2.BB-/	2r	2B-\	2.d/	1dd
.	2.F/	1d	.	.
4C/	.	.	4e/	.
4D\	.	.	[0f	2b-\
4BB-/	4G/	.	.	.
2F\	2A/	2c\	.	2cc\
2.BB-/	2F/	2B-\	.	1dd
.	[2F/	[2d\	.	.
4C/	.	.	.	.
=75	=75	=75	=75	=75
4D\	4F/]	2d\]	0.f]	2b-\
4BB-/	4G/	.	.	.
2F\	2A/	2c\	.	2cc\
2BB-/	2B-\	2B-\	.	2dd\
2.F\	2A/	1c	.	2cc\
.	1F	.	.	2a/
4E\	.	.	.	.
2D\	.	2B-\	.	2b-\
=76	=76	=76	=76	=76
1C	1E	2A/	2r	1cc
.	.	1c	2g/	.
1D	1F	.	2.f/	2a/
.	.	4B-\	.	2b-\
.	.	4A/	4g/	.
2AA/	2E/	2A/	2a/	2cc\
[2BB-/	2D/	[2d\	[2f/	[2b-\
=77	=77	=77	=77	=77
2BB-/]	1F	2d\]	2f/]	2b-\]
2F\	.	2c\	4e/	2a/
.	.	.	4d/	.
2G\	1r	2B-\	0d	2g/
2D\	.	2A/	.	2f/
1G	1r	2.B-\	.	2.g/
.	.	4A/	.	4a/
=78	=78	=78	=78	=78
1D	1F	[0.Al	2r	[0.al
.	.	.	2d/	.
2C/	2E/	.	2e/	.
1D	2F/	.	2d/	.
.	2D/	.	2.f/	.
2AA/	[2F/	.	.	.
.	.	.	4e/	.
=79	=79	=79	=79	=79
0.AAl	2F/]	0.A]	2.c/	0.a]
.	2E/	.	.	.
.	.	.	4d/	.
.	0El	.	0el	.
==	==	==	==	==
*-	*-	*-	*-	*-
!!!RDF**kern: l=long note in original notation
!!!RDF**kern: i=editorial accidental
!!!RDF**kern: V=start of tuplet marker
!!!RDF**kern: Z=end of tuplet marker
!!!ENC:	Chris Gage 09-22-2012
!!!END:	2012/09/29/
!!!EED:	Jesse Rodin
!!!EEV:	2012/09/29/
!!!ONB:	Translated from MusicXML and edited on 2012/09/29/ by Craig Sapp
!!muse2ps: T^@{OPR}^u^@{ONM}{. }@{OTL}^C^@{COM}^i2I150v85,85,85,85,130Q8c140
